img/Logo.svg

<svg fill="none" height="35" viewBox="0 0 116 35" width="116" xmlns="http://www.w3.org/2000/svg"><path d="m74.9999 29 9.5 3 8-8 10.0001 7 10.5-2-4.5-14.5-16.0001 5-9-5-9.5 1.5z" fill="#f1a501"/><g fill="#000"><path d="m.919922 24.064v-2.162l6.117998-1.104v2.99c.03067 1.6253.44467 2.852 1.242 3.68.828.7973 1.91668 1.196 3.26598 1.196 1.3187 0 2.3614-.4293 3.128-1.288.7974-.8587 1.196-2.0087 1.196-3.45v-22.54002h6.348v22.54002c0 3.0053-.9966 5.5507-2.99 7.636-1.9933 2.0853-4.5386 3.128-7.636 3.128-3.21998 0-5.81131-.966-7.77398-2.898-1.932-1.9627-2.897998-4.5387-2.897998-7.728z"/><path d="m23.6766 27.836c0-1.932.6287-3.4807 1.886-4.646 1.2574-1.1653 2.8827-1.9013 4.876-2.208l5.566-.828c1.1347-.1533 1.702-.69 1.702-1.61 0-.8587-.3373-1.564-1.012-2.116-.644-.552-1.5793-.828-2.806-.828-1.288 0-2.3153.3527-3.082 1.058-.736.7053-1.15 1.5793-1.242 2.622l-5.428-1.15c.2147-1.9627 1.1807-3.6953 2.898-5.198 1.7174-1.5027 3.9867-2.254 6.808-2.254 3.3734 0 5.8574.8127 7.452 2.438 1.5947 1.5947 2.392 3.6493 2.392 6.164v11.132c0 1.3493.092 2.5453.276 3.588h-5.612c-.1533-.6747-.23-1.5793-.23-2.714-1.4413 2.2387-3.6646 3.358-6.67 3.358-2.3306 0-4.2166-.6747-5.658-2.024-1.4106-1.3493-2.116-2.944-2.116-4.784zm9.062 2.254c1.4414 0 2.622-.3987 3.542-1.196.9507-.828 1.426-2.1773 1.426-4.048v-1.012l-5.106.782c-1.8706.276-2.806 1.2267-2.806 2.852 0 .736.2607 1.3647.782 1.886.5214.4907 1.242.736 2.162.736z"/><path d="m67.6577.695984v29.210016c0 1.5027.0613 2.8673.184 4.094h-5.842c-.1534-.7667-.23-1.6407-.23-2.622-.5214.9507-1.3494 1.7173-2.484 2.3-1.104.5827-2.392.874-3.864.874-3.22 0-5.8727-1.1193-7.958-3.358-2.0547-2.2693-3.082-5.1213-3.082-8.556 0-3.3427 1.012-6.1487 3.036-8.418 2.0546-2.2693 4.6613-3.404 7.82-3.404 3.2506 0 5.382.9353 6.394 2.806v-12.926016zm-17.112 21.942016c0 1.9933.5213 3.5727 1.564 4.738 1.0426 1.1347 2.392 1.702 4.048 1.702 1.6253 0 2.9593-.5827 4.002-1.748 1.0426-1.1653 1.564-2.7447 1.564-4.738 0-1.9627-.5214-3.496-1.564-4.6-1.0427-1.1347-2.3767-1.702-4.002-1.702-1.6254 0-2.9747.5673-4.048 1.702-1.0427 1.1347-1.564 2.6833-1.564 4.646z"/><path d="m76.6866 27.422c1.1347 1.1347 2.4993 1.702 4.094 1.702s2.944-.5673 4.048-1.702c1.1347-1.1347 1.702-2.714 1.702-4.738s-.5673-3.6033-1.702-4.738c-1.104-1.1347-2.4533-1.702-4.048-1.702s-2.9593.5673-4.094 1.702c-1.104 1.1347-1.656 2.714-1.656 4.738s.552 3.6033 1.656 4.738zm-4.416-13.34c2.2693-2.2693 5.106-3.404 8.51-3.404s6.2253 1.1347 8.464 3.404c2.2693 2.2693 3.404 5.1367 3.404 8.602s-1.1347 6.3327-3.404 8.602c-2.2387 2.2693-5.06 3.404-8.464 3.404s-6.2407-1.1347-8.51-3.404c-2.2387-2.2693-3.358-5.1367-3.358-8.602s1.1193-6.3327 3.358-8.602z"/><path d="m99.8699 27.422c1.1351 1.1347 2.4991 1.702 4.0941 1.702s2.944-.5673 4.048-1.702c1.135-1.1347 1.702-2.714 1.702-4.738s-.567-3.6033-1.702-4.738c-1.104-1.1347-2.453-1.702-4.048-1.702s-2.959.5673-4.0941 1.702c-1.104 1.1347-1.656 2.714-1.656 4.738s.552 3.6033 1.656 4.738zm-4.416-13.34c2.2693-2.2693 5.1061-3.404 8.5101-3.404s6.225 1.1347 8.464 3.404c2.269 2.2693 3.404 5.1367 3.404 8.602s-1.135 6.3327-3.404 8.602c-2.239 2.2693-5.06 3.404-8.464 3.404s-6.2408-1.1347-8.5101-3.404c-2.2387-2.2693-3.358-5.1367-3.358-8.602s1.1193-6.3327 3.358-8.602z"/></g></svg>

<svg width="116" height="35" viewBox="0 0 116 35" fill="none" xmlns="http://www.w3.org/2000/svg">
<g id="Logo">
<path id="Rectangle 24" d="M74.9999 29L84.4999 32L92.4999 24L102.5 31L113 29L108.5 14.5L92.4999 19.5L83.4999 14.5L73.9999 16L74.9999 29Z" fill="#F1A501"/>
<g id="Jadoo">
<path d="M0.919922 24.064V21.902L7.03792 20.798V23.788C7.06859 25.4133 7.48259 26.64 8.27992 27.468C9.10792 28.2653 10.1966 28.664 11.5459 28.664C12.8646 28.664 13.9073 28.2347 14.6739 27.376C15.4713 26.5173 15.8699 25.3673 15.8699 23.926V1.38598H22.2179V23.926C22.2179 26.9313 21.2213 29.4767 19.2279 31.562C17.2346 33.6473 14.6893 34.69 11.5919 34.69C8.37192 34.69 5.78059 33.724 3.81792 31.792C1.88592 29.8293 0.919922 27.2533 0.919922 24.064Z" fill="black"/>
<path d="M23.6766 27.836C23.6766 25.904 24.3053 24.3553 25.5626 23.19C26.82 22.0247 28.4453 21.2887 30.4386 20.982L36.0046 20.154C37.1393 20.0007 37.7066 19.464 37.7066 18.544C37.7066 17.6853 37.3693 16.98 36.6946 16.428C36.0506 15.876 35.1153 15.6 33.8886 15.6C32.6006 15.6 31.5733 15.9527 30.8066 16.658C30.0706 17.3633 29.6566 18.2373 29.5646 19.28L24.1366 18.13C24.3513 16.1673 25.3173 14.4347 27.0346 12.932C28.752 11.4293 31.0213 10.678 33.8426 10.678C37.216 10.678 39.7 11.4907 41.2946 13.116C42.8893 14.7107 43.6866 16.7653 43.6866 19.28V30.412C43.6866 31.7613 43.7786 32.9573 43.9626 34H38.3506C38.1973 33.3253 38.1206 32.4207 38.1206 31.286C36.6793 33.5247 34.456 34.644 31.4506 34.644C29.12 34.644 27.234 33.9693 25.7926 32.62C24.382 31.2707 23.6766 29.676 23.6766 27.836ZM32.7386 30.09C34.18 30.09 35.3606 29.6913 36.2806 28.894C37.2313 28.066 37.7066 26.7167 37.7066 24.846V23.834L32.6006 24.616C30.73 24.892 29.7946 25.8427 29.7946 27.468C29.7946 28.204 30.0553 28.8327 30.5766 29.354C31.098 29.8447 31.8186 30.09 32.7386 30.09Z" fill="black"/>
<path d="M67.6577 0.695984V29.906C67.6577 31.4087 67.719 32.7733 67.8417 34H61.9997C61.8463 33.2333 61.7697 32.3593 61.7697 31.378C61.2483 32.3287 60.4203 33.0953 59.2857 33.678C58.1817 34.2607 56.8937 34.552 55.4217 34.552C52.2017 34.552 49.549 33.4327 47.4637 31.194C45.409 28.9247 44.3817 26.0727 44.3817 22.638C44.3817 19.2953 45.3937 16.4893 47.4177 14.22C49.4723 11.9507 52.079 10.816 55.2377 10.816C58.4883 10.816 60.6197 11.7513 61.6317 13.622V0.695984H67.6577ZM50.5457 22.638C50.5457 24.6313 51.067 26.2107 52.1097 27.376C53.1523 28.5107 54.5017 29.078 56.1577 29.078C57.783 29.078 59.117 28.4953 60.1597 27.33C61.2023 26.1647 61.7237 24.5853 61.7237 22.592C61.7237 20.6293 61.2023 19.096 60.1597 17.992C59.117 16.8573 57.783 16.29 56.1577 16.29C54.5323 16.29 53.183 16.8573 52.1097 17.992C51.067 19.1267 50.5457 20.6753 50.5457 22.638Z" fill="black"/>
<path d="M76.6866 27.422C77.8213 28.5567 79.1859 29.124 80.7806 29.124C82.3753 29.124 83.7246 28.5567 84.8286 27.422C85.9633 26.2873 86.5306 24.708 86.5306 22.684C86.5306 20.66 85.9633 19.0807 84.8286 17.946C83.7246 16.8113 82.3753 16.244 80.7806 16.244C79.1859 16.244 77.8213 16.8113 76.6866 17.946C75.5826 19.0807 75.0306 20.66 75.0306 22.684C75.0306 24.708 75.5826 26.2873 76.6866 27.422ZM72.2706 14.082C74.5399 11.8127 77.3766 10.678 80.7806 10.678C84.1846 10.678 87.0059 11.8127 89.2446 14.082C91.5139 16.3513 92.6486 19.2187 92.6486 22.684C92.6486 26.1493 91.5139 29.0167 89.2446 31.286C87.0059 33.5553 84.1846 34.69 80.7806 34.69C77.3766 34.69 74.5399 33.5553 72.2706 31.286C70.0319 29.0167 68.9126 26.1493 68.9126 22.684C68.9126 19.2187 70.0319 16.3513 72.2706 14.082Z" fill="black"/>
<path d="M99.8699 27.422C101.005 28.5567 102.369 29.124 103.964 29.124C105.559 29.124 106.908 28.5567 108.012 27.422C109.147 26.2873 109.714 24.708 109.714 22.684C109.714 20.66 109.147 19.0807 108.012 17.946C106.908 16.8113 105.559 16.244 103.964 16.244C102.369 16.244 101.005 16.8113 99.8699 17.946C98.7659 19.0807 98.2139 20.66 98.2139 22.684C98.2139 24.708 98.7659 26.2873 99.8699 27.422ZM95.4539 14.082C97.7232 11.8127 100.56 10.678 103.964 10.678C107.368 10.678 110.189 11.8127 112.428 14.082C114.697 16.3513 115.832 19.2187 115.832 22.684C115.832 26.1493 114.697 29.0167 112.428 31.286C110.189 33.5553 107.368 34.69 103.964 34.69C100.56 34.69 97.7232 33.5553 95.4539 31.286C93.2152 29.0167 92.0959 26.1493 92.0959 22.684C92.0959 19.2187 93.2152 16.3513 95.4539 14.082Z" fill="black"/>
</g>
</g>
</svg>
